Dominus_Dark_Funeral/22/mimes/application-x-srt.svg

<svg xmlns="http://www.w3.org/2000/svg" width="24" height="24"><path style="marker:none" d="M1.72 2.458V17.14h7.838L8.08 21.542l6.37-4.402h7.829V2.458zm1.467 1.467h3.035v2.917H3.187zm14.582 0h3.044v2.917h-3.035zM3.187 8.327h3.035v2.935H3.187zm14.582 0h3.044v2.935h-3.035zM3.187 12.73h3.035v2.935H3.187zm14.582 0h3.044v2.935h-3.035z" overflow="visible" color="#000" fill="#e6e6e6"/></svg>

<?xml version="1.0" encoding="UTF-8" standalone="no"?>
<svg
   xmlns:dc="http://purl.org/dc/elements/1.1/"
   xmlns:cc="http://creativecommons.org/ns#"
   xmlns:rdf="http://www.w3.org/1999/02/22-rdf-syntax-ns#"
   xmlns:svg="http://www.w3.org/2000/svg"
   xmlns="http://www.w3.org/2000/svg"
   xmlns:sodipodi="http://sodipodi.sourceforge.net/DTD/sodipodi-0.dtd"
   xmlns:inkscape="http://www.inkscape.org/namespaces/inkscape"
   width="24"
   height="24"
   version="1.1"
   id="svg4"
   sodipodi:docname="application-x-srt.svg"
   inkscape:version="0.92.4 (5da689c313, 2019-01-14)">
  <metadata
     id="metadata10">
    <rdf:RDF>
      <cc:Work
         rdf:about="">
        <dc:format>image/svg+xml</dc:format>
        <dc:type
           rdf:resource="http://purl.org/dc/dcmitype/StillImage" />
        <dc:title></dc:title>
      </cc:Work>
    </rdf:RDF>
  </metadata>
  <defs
     id="defs8" />
  <sodipodi:namedview
     pagecolor="#ffffff"
     bordercolor="#666666"
     borderopacity="1"
     objecttolerance="10"
     gridtolerance="10"
     guidetolerance="10"
     inkscape:pageopacity="0"
     inkscape:pageshadow="2"
     inkscape:window-width="1112"
     inkscape:window-height="480"
     id="namedview6"
     showgrid="false"
     inkscape:zoom="9.8333333"
     inkscape:cx="1.0677966"
     inkscape:cy="12"
     inkscape:window-x="0"
     inkscape:window-y="25"
     inkscape:window-maximized="0"
     inkscape:current-layer="svg4" />
  <path
     style="color:#000000;overflow:visible;fill:#e6e6e6;marker:none"
     d="M 1.72,2.458 V 17.14 H 9.558 L 8.08,21.542 14.45,17.14 h 7.829 V 2.458 Z M 3.187,3.925 H 6.222 V 6.842 H 3.187 Z m 14.582,0 h 3.044 V 6.842 H 17.778 Z M 3.187,8.327 h 3.035 v 2.935 H 3.187 Z m 14.582,0 h 3.044 v 2.935 H 17.778 Z M 3.187,12.73 h 3.035 v 2.935 H 3.187 Z m 14.582,0 h 3.044 v 2.935 h -3.035 z"
     overflow="visible"
     id="path2"
     inkscape:connector-curvature="0" />
</svg>
